X:3
T:Cliffs of Moher, The
M:6/8
Z:Boston, Madison, Vancouver
R:jig
K:G
eaa bag|(4efaf ged|c2 A BAG|EFG ABc|eaa bag|(4efaf ged|cAA BAG|EFG A3:|
efe dBA|efe dBA|G2 d dBA|GAB dBd|efe dBA|efe dBA|GAB dBG|EFG A3|
~e3 dBA|~e3 dBA|~G3 dBA|GAB dBd|efe dee|cee Bee|EFG BAG|EDB, A,3||
<end>
<start>
